svg/justvector/sharethis.svg

<svg xmlns="http://www.w3.org/2000/svg" viewBox="0 0 100 100" enable-background="new 0 0 100 100"><path d="m36.764 50c0 .308-.07.598-.088.905l32.25 16.12c2.76-2.338 6.293-3.797 10.195-3.797 8.772.0001 15.882 7.111 15.882 15.882 0 8.781-7.11 15.891-15.882 15.891-8.78 0-15.882-7.11-15.882-15.891 0-.316.07-.598.088-.905l-32.25-16.12c-2.769 2.329-6.293 3.788-10.195 3.788-8.772 0-15.882-7.102-15.882-15.873 0-8.78 7.11-15.891 15.882-15.891 3.902 0 7.427 1.468 10.195 3.797l32.25-16.12c-.018-.308-.088-.598-.088-.914 0-8.763 7.102-15.873 15.882-15.873 8.772 0 15.882 7.11 15.882 15.873 0 8.78-7.11 15.891-15.882 15.891-3.911 0-7.436-1.468-10.195-3.806l-32.25 16.13c.017.308.088.598.088.914"/></svg>

<?xml version="1.0" encoding="iso-8859-1"?>
<!-- Generator: Adobe Illustrator 15.0.0, SVG Export Plug-In . SVG Version: 6.00 Build 0)  -->
<!DOCTYPE svg PUBLIC "-//W3C//DTD SVG 1.1//EN" "http://www.w3.org/Graphics/SVG/1.1/DTD/svg11.dtd">
<svg version="1.1" id="Icons" xmlns="http://www.w3.org/2000/svg" xmlns:xlink="http://www.w3.org/1999/xlink" x="0px" y="0px"
	 width="100px" height="100px" viewBox="0 0 100 100" style="enable-background:new 0 0 100 100;" xml:space="preserve">
<path id="ShareThis" d="M36.764,50c0,0.308-0.07,0.598-0.088,0.905l32.247,16.119c2.76-2.338,6.293-3.797,10.195-3.797
	C87.89,63.228,95,70.338,95,79.109C95,87.89,87.89,95,79.118,95c-8.78,0-15.882-7.11-15.882-15.891c0-0.316,0.07-0.598,0.088-0.905
	L31.077,62.085c-2.769,2.329-6.293,3.788-10.195,3.788C12.11,65.873,5,58.771,5,50c0-8.78,7.11-15.891,15.882-15.891
	c3.902,0,7.427,1.468,10.195,3.797l32.247-16.119c-0.018-0.308-0.088-0.598-0.088-0.914C63.236,12.11,70.338,5,79.118,5
	C87.89,5,95,12.11,95,20.873c0,8.78-7.11,15.891-15.882,15.891c-3.911,0-7.436-1.468-10.195-3.806L36.676,49.086
	C36.693,49.394,36.764,49.684,36.764,50z"/>
</svg>
